svgs/light/arrows-left-right-to-line.svg

<svg xmlns="http://www.w3.org/2000/svg" viewBox="0 0 640 512"><!--! Font Awesome Pro 6.4.2 by @fontawesome - https://fontawesome.com License - https://fontawesome.com/license (Commercial License) Copyright 2023 Fonticons, Inc. --><path d="M16 64c8.8 0 16 7.2 16 16l0 352c0 8.8-7.2 16-16 16s-16-7.2-16-16V80c0-8.8 7.2-16 16-16zm203.3 84.7c6.2 6.2 6.2 16.4 0 22.6L150.6 240l338.7 0-68.7-68.7c-6.2-6.2-6.2-16.4 0-22.6s16.4-6.2 22.6 0l96 96c6.2 6.2 6.2 16.4 0 22.6l-96 96c-6.2 6.2-16.4 6.2-22.6 0s-6.2-16.4 0-22.6L489.4 272l-338.7 0 68.7 68.7c6.2 6.2 6.2 16.4 0 22.6s-16.4 6.2-22.6 0l-96-96c-6.2-6.2-6.2-16.4 0-22.6l96-96c6.2-6.2 16.4-6.2 22.6 0zM640 80V432c0 8.8-7.2 16-16 16s-16-7.2-16-16V80c0-8.8 7.2-16 16-16s16 7.2 16 16z"/></svg>

<svg xmlns="http://www.w3.org/2000/svg" viewBox="0 0 640 512"><!--! Font Awesome Pro 6.1.1 by @fontawesome - https://fontawesome.com License - https://fontawesome.com/license (Commercial License) Copyright 2022 Fonticons, Inc. --><path d="M16 64C24.84 64 32 71.16 32 80V432C32 440.8 24.84 448 16 448C7.164 448 0 440.8 0 432V80C0 71.16 7.164 64 16 64zM219.3 148.7C225.6 154.9 225.6 165.1 219.3 171.3L150.6 240H489.4L420.7 171.3C414.4 165.1 414.4 154.9 420.7 148.7C426.9 142.4 437.1 142.4 443.3 148.7L539.3 244.7C545.6 250.9 545.6 261.1 539.3 267.3L443.3 363.3C437.1 369.6 426.9 369.6 420.7 363.3C414.4 357.1 414.4 346.9 420.7 340.7L489.4 272H150.6L219.3 340.7C225.6 346.9 225.6 357.1 219.3 363.3C213.1 369.6 202.9 369.6 196.7 363.3L100.7 267.3C94.44 261.1 94.44 250.9 100.7 244.7L196.7 148.7C202.9 142.4 213.1 142.4 219.3 148.7H219.3zM640 432C640 440.8 632.8 448 624 448C615.2 448 608 440.8 608 432V80C608 71.16 615.2 64 624 64C632.8 64 640 71.16 640 80V432z"/></svg>
